X: 10582
T: la BELLE CATHRINE
Q: "Allegretto"
%R: reel
B: "Edinburgh Repository of Music" v.1 p.58 #2
F: http://digital.nls.uk/special-collections-of-printed-music/pageturner.cfm?id=87776133
Z: 2015 John Chambers <jc:trillian.mit.edu>
N: The segno symbols aren't correct; they lose 1/8 between the strains. Not fixed.
M: 2/4
L: 1/16
K: C
G2 !segno!|\
c4 (edcd) | e2c2~c2B2 |\
A4 dedc | B2G2 G4 |\
c4 (edcd) | e2c2c2B2 |\
A2d2 cBAG | c4 "_Fine."C2 :|
(GF) |\
E2G2TG3F | E2G2 G2cB |\
A2A2 (dedc) | B2G2TG3F |\
E2G2 TG2AB | c2ec B2dB |\
c2c2 {f}e2dc | Hg4 G2 !segno!|]
